X:1
T:Au dieu d'amours
T:Jean de Castro
T:Source : La fleur des chansons à 3---Louvain---P.Phalès---1574. Editor : André Vierendeels (07/09/18) Notes : Original clefs : G2, C1, C3 Original note values have been halved Editorial accidentals above the staff Square brackets indicate ligatures
T:Au dieu d'amours
T:©
T:©
T:©
T:©
C:Jean de Castro
Z:©
%%score [ 1 2 3 ]
L:1/8
Q:1/4=120
M:2/2
K:C
V:1 treble nm="Soprano 1" snm="S 1"
V:2 treble nm="Soprano 2" snm="S 2"
V:3 treble-8 nm="Tenor" snm="T"
V:1
 z8 | z4 c4 | c2 d2 e2 e2 | f3 e dc B2 | c2 z2 z2 G2 | A2 B2 c3 B | A2 G2 FE ED/C/ | D4 E2 G2 | %8
w: |Au|dieu d'a- mours, i'en|quit- t'et rends les ar-|mes, ne|re- te- nant de|son train que les lar- * *|* mes, ne|
 A2 B2 cdef | g3 f/e/ d2 e2 | f3 e d2 c2 | B4 c3 B | A4 B2 B2 | c2 A2 G4 | z2 d2 e2 e2 | %15
w: re- te- nant _ _ _|_ _ _ _ de|son train que les|la- * *|* mes, pour|me ser- vir,|pour me ser-|
 g4 z2 c2- | c2 A2 A4 | f6 e2 | f6 e2- | e2 d2 e2 z g | fe d3 GAB | c2 B2 cB/A/ G2 | z ggf ddec | %23
w: vir et|_ plou- rer,|et plou-|rer mon|_ mal- heur, et|iet- ter hors par mes yeux|ma cha- leur, _ _ _|et iet- ter hors par mes yeux|
 AG A2 z2 e2 | e6 e2 | e2 e2 f4- | f2 e2 ec B2 | d2 d2 d3 c | B2 B2 A4 | z2 G2 c2 d2 | %30
w: ma cha- leur, le|sup- pli-|ant que mieux|_ il se con- ten-|te de mes _|_ tra- vaux,|que non de|
 e2 f2 g2 fe | dc d2 e2 z G | c2 d2 e2 f2 | g2 fe dc d2 | e8 |] %35
w: son at- ten- * *|* * * te, que|non de son at-|ten- * * * * *|te.|
V:2
 z8 | G4 A4- | A2 B2 c2 G2 | A3 G FE D2 | C2 z D E4 | F2 G2 z2 C2 | D2 E2 z2 C2- | CC B,2 C2 E2 | %8
w: |Au dieu|_ d'a- mours, i'en|quit- t'et rends les ar-|mes, ne re-|te- nant de|son train que|_ les lar- mes, ne|
 F2 G2 A2 GF | EFGA B2 c2 | A2 A2 A2 A2 | G3 F/G/ A2 G2- |"^#" G2 F2 G2 z G | C2 D2 E2 z c | %14
w: re- te- nant _ _|_ _ _ _ _ de|son train que les|lar- * * * *|* * mes, pour|me ser- vir, pour|
 A2 B2 c2 G2- | G2 E2 E4 | z2 c4 A2 | A2 A4 G2 | FGAB c2 c2- | c2 A2 G2 z C | DEF G2 EFE- | %21
w: me ser- vir et|_ plou- rer,|et plou-|rer, et plou-|rer _ _ _ _ mon|_ mal- heur, et|iet- ter hors par mes yeux ma|
 EC D2 z DEE | ABcc BB c/B/A/G/ | F G2 F G4 | z2 c2 A2 B2 | c4 A4 | A2 c2 BA ^G2 | A2 ^F2 G4 | %28
w: _ cha- leur, et iet- ter|hors par mes yeux ma cha- * * * *|* * * leur,|le sup- pli-|ant que|mieux il se con- ten-|te de mes,|
 z2 G2 G2 ^F2 | G2 z E A2 B2 | c2 A2 G2 A2 | B c2 B c2 z c | A2 B2 c2 A2 | G2 A2 B c2 B | c8 |] %35
w: de mes tra-|vaux, que non de|son at- ten- *|* * * te, que|non de son at-|ten- * * * *|te.|
V:3
 c4 c2 d2 | e2 e2 f3 e | fe d2 c4 | z4 z2 G2 | A2 B2 c3 B | A2 G2 F4- | F2 E2 A4 | G4 z2 c2 | %8
w: Au dieu d'a-|mours, i'en quit- t'et|rends les ar- mes,|ne|re- te- nant de|son train que|_ les lar-|mes, ne|
 A2 G2 F2 c2 | cdef g2 c2 | d6 A2 | e3 d c4 | d4 z4 | z4 z2 e2 | f2 d2 c4 | z2 c4 A2 | A4 F4- | %17
w: re- te- nant de|son _ _ _ _ train|que les|lar- * *|mes,|pour|me ser- vir,|et plou-|rer, et|
 F2 F2 c4 | d4 a4 | f4 e4 | z8 | z2 G2 AB c2 | A e2 f g2 c2 | d4 z2 c2 | AA a4 ^g2 | a4 d4 | %26
w: _ plou- rer|mon mal-|* heur,||et iet- ter hors|par mes yeux ma cha-|leur, le|sup- pli- ant que|mieux il|
 d2 A2 e4 | d4 z2 G2 | G2 G2 d4 | z4 z2 G2 | c2 d2 e2 f2 | g4 c4 | z2 G2 c2 d2 | e2 f2 g4 | c8 |] %35
w: se con- ten-|te, de|mes tra- vaux,|que|non de son at-|ten- te,|que non de|son at- ten-|te.|

